icons/volume-down-line.svg

<svg viewBox="0 0 24 24" fill="currentColor" xmlns="http://www.w3.org/2000/svg"><path d="M13 7.22049L9.60282 10H6V14H9.60282L13 16.7795V7.22049ZM8.88889 16H5C4.44772 16 4 15.5523 4 15V9.00001C4 8.44772 4.44772 8.00001 5 8.00001H8.88889L14.1834 3.66815C14.3971 3.49329 14.7121 3.52479 14.887 3.73851C14.9601 3.82784 15 3.93971 15 4.05513V19.9449C15 20.221 14.7761 20.4449 14.5 20.4449C14.3846 20.4449 14.2727 20.405 14.1834 20.3319L8.88889 16ZM18.8631 16.5911L17.4411 15.169C18.3892 14.4376 19 13.2901 19 12C19 10.5697 18.2493 9.31469 17.1203 8.6076L18.5589 7.169C20.0396 8.2616 21 10.0187 21 12C21 13.8422 20.1698 15.4904 18.8631 16.5911Z"/></svg>

<svg xmlns="http://www.w3.org/2000/svg" viewBox="0 0 24 24">
    <g>
        <path fill="none" d="M0 0h24v24H0z"/>
        <path d="M13 7.22L9.603 10H6v4h3.603L13 16.78V7.22zM8.889 16H5a1 1 0 0 1-1-1V9a1 1 0 0 1 1-1h3.889l5.294-4.332a.5.5 0 0 1 .817.387v15.89a.5.5 0 0 1-.817.387L8.89 16zm9.974.591l-1.422-1.422A3.993 3.993 0 0 0 19 12c0-1.43-.75-2.685-1.88-3.392l1.439-1.439A5.991 5.991 0 0 1 21 12c0 1.842-.83 3.49-2.137 4.591z"/>
    </g>
</svg>
